X: 1529
T: Harry Reeves' Waltz
B: australian traditional tunes wiki
M:3/4
L:1/8
R: Waltz
Q: 1/4=100
K:G
V:1 
^cd|:"G"e2d2B2|G2B2d2|"Am"f2e2c2|A4G2|"D"FG AB cd|1"D"e2d2^c2|"G"d6-|d4^cd:|2"D"e2d2F2|"G"G6-|G4D2||
|"G"B4c2|d4de|"D"d4d2|d2^c2d2|"Am"e4f2|g4a2|"C"g6-|g4f2|
"A7"f3 eed|"Am"c4B2|A2B2c2|"D"d6|d3BcA|"Am"E4F2|"G"G6-|G4z2||
% abcbook-tune_id 6342d53a7a63ee924ba350cf


% abcbook-boost 0
% abcbook-tablature 
% abcbook-transpose 
% abcbook-lastupdated 1665324369532
% abcbook-soundfonts 
% abcbook-repeats 1
% NFF Book 2013

